public/icons/picto-traces.svg

<svg fill="none" height="26" viewBox="0 0 25 26" width="25" xmlns="http://www.w3.org/2000/svg"><circle cx="12.5" cy="13" fill="#f4f7fe" r="12.5"/><g fill="#61a83e"><path d="m10.0296 9.55785c-.05583-.00001-.11103.01118-.16251.03285-.05149.02167-.09814.05343-.13728.09341s-.07012.08739-.09082.13946c-.02071.05207-.03088.10778-.02993.16384v4.29489c-.00096.0557.00931.111.0301.1627s.05176.0987.091.1381c.03923.0394.086.0705.13745.0914s.1065.0311.16199.0301c.0558.001.1112-.0092.163-.03.0519-.0208.0991-.0518.1389-.0911s.0715-.0863.093-.138c.0216-.0517.0328-.1071.0328-.1632v-4.29489c0-.11391-.0451-.22319-.1253-.30374-.0802-.08054-.189-.12582-.3024-.12582zm0 5.98435c-.33776-.0019-.66105-.1376-.89988-.3774-.23883-.2399-.37394-.5647-.37581-.904v-4.29489c0-.33982.13449-.66575.37372-.90604.23924-.2403.56364-.3753.90197-.3753.3383 0 .6627.135.9019.3753.2393.24029.3738.56622.3738.90604v4.29489c0 .3398-.1345.6658-.3738.9061-.2392.2402-.5636.3753-.9019.3753z"/><path d="m11.7325 9.55785c-.1134 0-.222.04528-.3022.12582-.0802.08055-.1253.18983-.1253.30374v4.29489c0 .0561.0112.1115.0328.1632.0215.0517.0531.0987.0929.138s.087.0703.1388.0911.1072.031.163.03c.0558.001.1114-.0092.1632-.03.0519-.0208.0991-.0518.1389-.0911s.0713-.0863.0929-.138.0327-.1071.0327-.1632v-4.29489c0-.11391-.0451-.22319-.1253-.30374-.0802-.08054-.189-.12582-.3024-.12582zm0 5.98435c-.3383 0-.6627-.1351-.9019-.3753-.2392-.2403-.3736-.5663-.3736-.9061v-4.29489c0-.33982.1344-.66575.3736-.90604.2392-.2403.5636-.3753.9019-.3753.3384 0 .6629.135.9022.3753.2392.24029.3735.56622.3735.90604v4.29489c0 .3398-.1343.6658-.3735.9061-.2393.2402-.5638.3753-.9022.3753z"/><path d="m13.4358 9.55785c-.1134 0-.2222.04528-.3024.12582-.0801.08055-.1252.18983-.1252.30374v4.29489c0 .0561.0111.1115.0327.1632s.0533.0987.0931.138.087.0703.1388.0911c.0519.0208.1072.031.163.03.0555.001.1106-.0092.162-.0301.0515-.0209.0982-.052.1375-.0914.0392-.0394.0702-.0864.091-.1381s.031-.107.0301-.1627v-4.29489c.0009-.05606-.0094-.11177-.0301-.16384s-.0515-.09948-.0907-.13946c-.0391-.03998-.0858-.07174-.1373-.09341-.0514-.02167-.1066-.03286-.1625-.03285zm0 5.98435c-.3383 0-.6627-.1351-.9019-.3753-.2392-.2403-.3737-.5663-.3737-.9061v-4.29489c0-.33982.1345-.66575.3737-.90604.2392-.2403.5636-.3753.9019-.3753.3384 0 .6628.135.902.3753.2392.24029.3737.56622.3737.90604v4.29489c-.0018.3393-.137.6641-.3758.904-.2388.2398-.5621.3755-.8999.3774"/><path d="m15.131 9.55785c-.0559-.00001-.1111.01118-.1625.03285-.0515.02167-.0982.05343-.1373.09341-.0392.03998-.07.08739-.0907.13946s-.0308.10778-.0299.16384v4.29489c-.001.0557.0091.111.0299.1627s.0518.0987.091.1381c.0393.0394.086.0705.1375.0914.0514.0209.1065.0311.162.0301.0558.001.1113-.0092.1632-.03.0518-.0208.099-.0518.1388-.0911s.0713-.0863.0929-.138.0327-.1071.0327-.1632v-4.29489c0-.11391-.0451-.22319-.1253-.30374-.0801-.08054-.1889-.12582-.3023-.12582zm0 5.98435c-.3378-.0019-.6611-.1376-.8999-.3774-.2388-.2399-.3738-.5647-.3756-.904v-4.29489c0-.33982.1343-.66575.3735-.90604.2392-.2403.5636-.3753.902-.3753.3383 0 .6628.135.9021.3753.2392.24029.3735.56622.3735.90604v4.29489c0 .3398-.1343.6658-.3735.9061-.2393.2402-.5638.3753-.9021.3753z"/><path d="m7.47828 14.6837c-.05582.0009-.11119-.0093-.16303-.0301s-.09905-.0517-.13885-.091-.07133-.0862-.09291-.1379c-.02157-.0517-.03272-.1072-.03271-.1633v-1.7108c0-.1139.04508-.2232.12527-.3038.08019-.0805.18882-.1257.30223-.1257.1134 0 .2222.0452.30239.1257.08019.0806.12527.1899.12527.3038v1.7108c.00001.0561-.01113.1116-.03271.1633-.02157.0517-.0531.0986-.09291.1379-.0398.0393-.087.0702-.13884.091s-.10739.031-.1632.0301"/><path d="m4.99084 20.1203h-1.60091c-.05489 0-.10919-.0111-.15981-.0324s-.09654-.0525-.13501-.0918c-.03848-.0393-.06882-.0859-.08917-.1371s-.03026-.106-.02932-.1611c-.00094-.0555.00897-.1106.02923-.1622.02027-.0516.05044-.0987.08882-.1386.03839-.0399.08418-.0717.13484-.0938s.1052-.034.16042-.0349h1.18766v-5.8304c-.00095-.0551.00905-.1098.0294-.161.02034-.0512.05062-.0979.08909-.1372.03848-.0393.08442-.0706.13504-.0919s.10484-.0322.15972-.0322h2.49426c.05548-.001.11066.0093.16211.0301.05144.0209.09806.052.13729.0914.03924.0394.07019.0863.09098.138s.03107.1071.03011.1628c.00094.0561-.00921.1118-.02992.1638-.02071.0521-.05151.0995-.09065.1395s-.08582.0717-.1373.0934-.1068.0328-.16262.0328h-2.07377v5.8304c0 .0554-.01085.1104-.03198.1616-.02113.0513-.05212.0978-.09117.137-.03904.0393-.08544.0704-.13646.0916-.05101.0212-.10566.0322-.16088.0322z"/><path d="m17.6823 11.6975c-.0558 0-.111-.0112-.1625-.0328-.0515-.0217-.0981-.0535-.1373-.0935-.0391-.0399-.0699-.0873-.0906-.1394s-.0311-.1078-.0301-.1638v-1.71086c-.001-.05573.0093-.11103.0301-.16271.0208-.05167.0517-.09864.091-.13806.0392-.03941.086-.07051.1374-.0914.0515-.02088.1065-.03111.162-.03014.0558-.00095.1112.00926.1631.03006.0518.0208.099.05182.1388.09113.0398.03932.0715.08618.0931.13789s.0327.10716.0327.16323v1.71086c0 .1139-.0451.2231-.1253.3037-.0802.0805-.189.1258-.3024.1258"/><path d="m21.6798 19.5447h-2.2868c-.1034-.0108-.1984-.0618-.265-.142-.0665-.0803-.0993-.1833-.0913-.2874v-8.24h-1.4253c-.1028-.0091-.1977-.0586-.2644-.1376-.0668-.0791-.0998-.1815-.0919-.2848-.008-.1041.0248-.2072.0913-.2874.0666-.0802.1616-.1312.265-.1421h1.7747c.1033.0109.1984.0619.2649.1421.0666.0802.0994.1833.0914.2874v8.2329h1.9302c.1029.0108.1973.0621.2627.1425.0654.0805.0965.1836.0865.287.01.1033-.0211.2065-.0865.2869-.0654.0805-.1598.1317-.2627.1425"/></g></svg>

<svg width="25" height="26" viewBox="0 0 25 26" fill="none" xmlns="http://www.w3.org/2000/svg">
<circle cx="12.5" cy="13" r="12.5" fill="#F4F7FE"/>
<path d="M10.0296 9.55785C9.97377 9.55784 9.91857 9.56903 9.86709 9.5907C9.8156 9.61237 9.76895 9.64413 9.72981 9.68411C9.69067 9.72409 9.65969 9.7715 9.63899 9.82357C9.61828 9.87564 9.60811 9.93135 9.60906 9.98741V14.2823C9.6081 14.338 9.61837 14.3933 9.63916 14.445C9.65995 14.4967 9.69092 14.5437 9.73016 14.5831C9.76939 14.6225 9.81616 14.6536 9.86761 14.6745C9.91906 14.6954 9.97411 14.7056 10.0296 14.7046C10.0854 14.7056 10.1408 14.6954 10.1926 14.6746C10.2445 14.6538 10.2917 14.6228 10.3315 14.5835C10.3713 14.5442 10.403 14.4972 10.4245 14.4455C10.4461 14.3938 10.4573 14.3384 10.4573 14.2823V9.98741C10.4573 9.8735 10.4122 9.76422 10.332 9.68367C10.2518 9.60313 10.143 9.55785 10.0296 9.55785V9.55785ZM10.0296 15.5422C9.69184 15.5403 9.36855 15.4046 9.12972 15.1648C8.89089 14.9249 8.75578 14.6001 8.75391 14.2608V9.96591C8.75391 9.62609 8.8884 9.30016 9.12763 9.05987C9.36687 8.81957 9.69127 8.68457 10.0296 8.68457C10.3679 8.68457 10.6923 8.81957 10.9315 9.05987C11.1708 9.30016 11.3053 9.62609 11.3053 9.96591V14.2608C11.3053 14.6006 11.1708 14.9266 10.9315 15.1669C10.6923 15.4071 10.3679 15.5422 10.0296 15.5422Z" fill="#61A83E"/>
<path d="M11.7325 9.55785C11.6191 9.55785 11.5105 9.60313 11.4303 9.68367C11.3501 9.76422 11.305 9.8735 11.305 9.98741V14.2823C11.305 14.3384 11.3162 14.3938 11.3378 14.4455C11.3593 14.4972 11.3909 14.5442 11.4307 14.5835C11.4705 14.6228 11.5177 14.6538 11.5695 14.6746C11.6213 14.6954 11.6767 14.7056 11.7325 14.7046C11.7883 14.7056 11.8439 14.6954 11.8957 14.6746C11.9476 14.6538 11.9948 14.6228 12.0346 14.5835C12.0744 14.5442 12.1059 14.4972 12.1275 14.4455C12.1491 14.3938 12.1602 14.3384 12.1602 14.2823V9.98741C12.1602 9.8735 12.1151 9.76422 12.0349 9.68367C11.9547 9.60313 11.8459 9.55785 11.7325 9.55785V9.55785ZM11.7325 15.5422C11.3942 15.5422 11.0698 15.4071 10.8306 15.1669C10.5914 14.9266 10.457 14.6006 10.457 14.2608V9.96591C10.457 9.62609 10.5914 9.30016 10.8306 9.05987C11.0698 8.81957 11.3942 8.68457 11.7325 8.68457C12.0709 8.68457 12.3954 8.81957 12.6347 9.05987C12.8739 9.30016 13.0082 9.62609 13.0082 9.96591V14.2608C13.0082 14.6006 12.8739 14.9266 12.6347 15.1669C12.3954 15.4071 12.0709 15.5422 11.7325 15.5422Z" fill="#61A83E"/>
<path d="M13.4358 9.55785C13.3224 9.55785 13.2136 9.60313 13.1334 9.68367C13.0533 9.76422 13.0082 9.8735 13.0082 9.98741V14.2823C13.0082 14.3384 13.0193 14.3938 13.0409 14.4455C13.0625 14.4972 13.0942 14.5442 13.134 14.5835C13.1738 14.6228 13.221 14.6538 13.2728 14.6746C13.3247 14.6954 13.38 14.7056 13.4358 14.7046C13.4913 14.7056 13.5464 14.6954 13.5978 14.6745C13.6493 14.6536 13.696 14.6225 13.7353 14.5831C13.7745 14.5437 13.8055 14.4967 13.8263 14.445C13.8471 14.3933 13.8573 14.338 13.8564 14.2823V9.98741C13.8573 9.93135 13.847 9.87564 13.8263 9.82357C13.8056 9.7715 13.7748 9.72409 13.7356 9.68411C13.6965 9.64413 13.6498 9.61237 13.5983 9.5907C13.5469 9.56903 13.4917 9.55784 13.4358 9.55785V9.55785ZM13.4358 15.5422C13.0975 15.5422 12.7731 15.4071 12.5339 15.1669C12.2947 14.9266 12.1602 14.6006 12.1602 14.2608V9.96591C12.1602 9.62609 12.2947 9.30016 12.5339 9.05987C12.7731 8.81957 13.0975 8.68457 13.4358 8.68457C13.7742 8.68457 14.0986 8.81957 14.3378 9.05987C14.577 9.30016 14.7115 9.62609 14.7115 9.96591V14.2608C14.7097 14.6001 14.5745 14.9249 14.3357 15.1648C14.0969 15.4046 13.7736 15.5403 13.4358 15.5422" fill="#61A83E"/>
<path d="M15.131 9.55785C15.0751 9.55784 15.0199 9.56903 14.9685 9.5907C14.917 9.61237 14.8703 9.64413 14.8312 9.68411C14.792 9.72409 14.7612 9.7715 14.7405 9.82357C14.7198 9.87564 14.7097 9.93135 14.7106 9.98741V14.2823C14.7096 14.338 14.7197 14.3933 14.7405 14.445C14.7613 14.4967 14.7923 14.5437 14.8315 14.5831C14.8708 14.6225 14.9175 14.6536 14.969 14.6745C15.0204 14.6954 15.0755 14.7056 15.131 14.7046C15.1868 14.7056 15.2423 14.6954 15.2942 14.6746C15.346 14.6538 15.3932 14.6228 15.433 14.5835C15.4728 14.5442 15.5043 14.4972 15.5259 14.4455C15.5475 14.3938 15.5586 14.3384 15.5586 14.2823V9.98741C15.5586 9.8735 15.5135 9.76422 15.4333 9.68367C15.3532 9.60313 15.2444 9.55785 15.131 9.55785ZM15.131 15.5422C14.7932 15.5403 14.4699 15.4046 14.2311 15.1648C13.9923 14.9249 13.8573 14.6001 13.8555 14.2608V9.96591C13.8555 9.62609 13.9898 9.30016 14.229 9.05987C14.4682 8.81957 14.7926 8.68457 15.131 8.68457C15.4693 8.68457 15.7938 8.81957 16.0331 9.05987C16.2723 9.30016 16.4066 9.62609 16.4066 9.96591V14.2608C16.4066 14.6006 16.2723 14.9266 16.0331 15.1669C15.7938 15.4071 15.4693 15.5422 15.131 15.5422Z" fill="#61A83E"/>
<path d="M7.47828 14.6837C7.42246 14.6846 7.36709 14.6744 7.31525 14.6536C7.26341 14.6328 7.2162 14.6019 7.1764 14.5626C7.1366 14.5233 7.10507 14.4764 7.08349 14.4247C7.06192 14.373 7.05077 14.3175 7.05078 14.2614V12.5506C7.05078 12.4367 7.09586 12.3274 7.17605 12.2468C7.25624 12.1663 7.36487 12.1211 7.47828 12.1211C7.59168 12.1211 7.70048 12.1663 7.78067 12.2468C7.86086 12.3274 7.90594 12.4367 7.90594 12.5506V14.2614C7.90595 14.3175 7.89481 14.373 7.87323 14.4247C7.85166 14.4764 7.82013 14.5233 7.78032 14.5626C7.74052 14.6019 7.69332 14.6328 7.64148 14.6536C7.58964 14.6744 7.53409 14.6846 7.47828 14.6837" fill="#61A83E"/>
<path d="M4.99084 20.1203H3.38993C3.33504 20.1203 3.28074 20.1092 3.23012 20.0879C3.1795 20.0666 3.13358 20.0354 3.09511 19.9961C3.05663 19.9568 3.02629 19.9102 3.00594 19.859C2.98559 19.8078 2.97568 19.753 2.97662 19.6979C2.97568 19.6424 2.98559 19.5873 3.00585 19.5357C3.02612 19.4841 3.05629 19.437 3.09467 19.3971C3.13306 19.3572 3.17885 19.3254 3.22951 19.3033C3.28017 19.2812 3.33471 19.2693 3.38993 19.2684H4.57759V13.438C4.57664 13.3829 4.58664 13.3282 4.60699 13.277C4.62733 13.2258 4.65761 13.1791 4.69608 13.1398C4.73456 13.1005 4.7805 13.0692 4.83112 13.0479C4.88174 13.0266 4.93596 13.0157 4.99084 13.0157H7.4851C7.54058 13.0147 7.59576 13.025 7.64721 13.0458C7.69865 13.0667 7.74527 13.0978 7.7845 13.1372C7.82374 13.1766 7.85469 13.2235 7.87548 13.2752C7.89627 13.3269 7.90655 13.3823 7.90559 13.438C7.90653 13.4941 7.89638 13.5498 7.87567 13.6018C7.85496 13.6539 7.82416 13.7013 7.78502 13.7413C7.74588 13.7813 7.6992 13.813 7.64772 13.8347C7.59624 13.8564 7.54092 13.8675 7.4851 13.8675H5.41133V19.6979C5.41133 19.7533 5.40048 19.8083 5.37935 19.8595C5.35822 19.9108 5.32723 19.9573 5.28818 19.9965C5.24914 20.0358 5.20274 20.0669 5.15172 20.0881C5.10071 20.1093 5.04606 20.1203 4.99084 20.1203Z" fill="#61A83E"/>
<path d="M17.6823 11.6975C17.6265 11.6975 17.5713 11.6863 17.5198 11.6647C17.4683 11.643 17.4217 11.6112 17.3825 11.5712C17.3434 11.5313 17.3126 11.4839 17.2919 11.4318C17.2712 11.3797 17.2608 11.324 17.2618 11.268V9.55714C17.2608 9.50141 17.2711 9.44611 17.2919 9.39443C17.3127 9.34276 17.3436 9.29579 17.3829 9.25637C17.4221 9.21696 17.4689 9.18586 17.5203 9.16497C17.5718 9.14409 17.6268 9.13386 17.6823 9.13483C17.7381 9.13388 17.7935 9.14409 17.8454 9.16489C17.8972 9.18569 17.9444 9.21671 17.9842 9.25602C18.024 9.29534 18.0557 9.3422 18.0773 9.39391C18.0989 9.44562 18.11 9.50107 18.11 9.55714V11.268C18.11 11.3819 18.0649 11.4911 17.9847 11.5717C17.9045 11.6522 17.7957 11.6975 17.6823 11.6975" fill="#61A83E"/>
<path d="M21.6798 19.5447H19.393C19.2896 19.5339 19.1946 19.4829 19.128 19.4027C19.0615 19.3224 19.0287 19.2194 19.0367 19.1153V10.8753H17.6114C17.5086 10.8662 17.4137 10.8167 17.347 10.7377C17.2802 10.6586 17.2472 10.5562 17.2551 10.4529C17.2471 10.3488 17.2799 10.2457 17.3464 10.1655C17.413 10.0853 17.508 10.0343 17.6114 10.0234H19.3861C19.4894 10.0343 19.5845 10.0853 19.651 10.1655C19.7176 10.2457 19.7504 10.3488 19.7424 10.4529V18.6858H21.6726C21.7755 18.6966 21.8699 18.7479 21.9353 18.8283C22.0007 18.9088 22.0318 19.0119 22.0218 19.1153C22.0318 19.2186 22.0007 19.3218 21.9353 19.4022C21.8699 19.4827 21.7755 19.5339 21.6726 19.5447" fill="#61A83E"/>
</svg>
